src/assets/whacky.svg

<svg width="79" height="78" viewBox="0 0 79 78" fill="none" xmlns="http://www.w3.org/2000/svg">
<path fill-rule="evenodd" clip-rule="evenodd" d="M8.65155 0.310274C7.28884 0.644821 6.65646 1.01288 6.13392 1.77552C5.37723 2.87986 5.29755 2.48072 9.76686 20.0001L13.8808 36.126L7.1531 54.5821C0.691439 72.309 0.425448 73.0805 0.424229 74.1047C0.422401 75.7148 1.15639 76.9166 2.5706 77.6182C3.15301 77.9072 3.90422 77.914 39.1142 77.9523C79.1415 77.9958 75.9164 78.0813 77.087 76.9453C77.4092 76.6325 77.7935 76.1054 77.941 75.7739C78.0886 75.4424 78.2745 75.0521 78.3541 74.9066C78.5371 74.5727 78.546 73.0675 78.3642 73.1798C78.29 73.2256 78.1972 73.1097 78.1579 72.9222C77.9687 72.0199 59.0792 20.4052 58.7557 19.9072C58.2475 19.1247 57.3071 18.4774 56.3941 18.2817C55.9234 18.1807 53.2793 18.1183 49.4702 18.1183C44.4563 18.1183 43.3078 18.0807 43.3078 17.9165C43.3078 17.8018 45.4686 16.6788 48.3164 15.3135C51.0711 13.993 53.5363 12.7839 53.7945 12.6268C54.4337 12.2382 54.9162 11.2464 54.9092 10.336C54.903 9.52829 54.6472 8.92607 54.0893 8.40506C53.7522 8.09032 43.7543 3.18866 43.4492 3.18866C43.3763 3.18866 43.1391 2.81343 42.9222 2.35473C41.7071 -0.213789 38.5752 -0.777003 36.5833 1.21489C35.3865 2.41186 35.3859 2.41658 35.3859 10.826V18.1034L28.797 18.149C22.2124 18.1945 22.2077 18.1948 21.4804 18.556C20.5987 18.994 19.7926 19.9 19.4434 20.8454C18.7743 22.657 18.6537 22.9115 18.5693 22.6887C18.5218 22.563 17.3155 17.867 15.8888 12.2531C14.4619 6.63924 13.2214 1.86555 13.132 1.64496C12.7656 0.742016 11.52 -0.0201597 10.4445 0.000406751C10.1276 0.0065005 9.3208 0.145895 8.65155 0.310274ZM9.38387 2.86142C8.86605 2.99945 8.39851 3.15743 8.34473 3.21227C8.24373 3.31525 12.651 20.8631 12.8201 21.0312C12.99 21.2 15.2701 20.4132 15.1994 20.2103C15.1635 20.107 14.1711 16.2179 12.9943 11.5676C11.8173 6.91727 10.799 3.01377 10.7314 2.89311C10.5571 2.58233 10.4407 2.57959 9.38387 2.86142ZM38.8136 2.75524C38.1052 3.14265 38.1281 2.69948 38.1281 16.0146V28.6301H39.3468H40.5656V16.0742C40.5656 9.16845 40.5229 3.40727 40.471 3.27168C40.3698 3.00828 39.6445 2.57624 39.3164 2.58385C39.2074 2.58644 38.9812 2.66353 38.8136 2.75524ZM43.3078 10.3991V14.7477L44.2599 14.3125C47.1103 13.01 52.2167 10.5098 52.2511 10.4C52.2819 10.3017 44.61 6.55027 43.5343 6.13757C43.337 6.06186 43.3078 6.61274 43.3078 10.3991ZM22.3401 21.1459C22.1705 21.304 21.5353 22.804 20.9164 24.5079L19.7992 27.5845L23.5759 42.4656C26.1414 52.5735 27.429 57.3958 27.5902 57.4992C27.7209 57.583 28.1045 57.9026 28.4428 58.2093L29.0582 58.7672L30.1451 63.1604L31.2321 67.5539L35.9369 67.6301C41.1629 67.7146 41.0634 67.6959 42.1104 68.7982C43.0564 69.7944 43.2056 70.2403 43.2735 72.2766C43.307 73.282 43.2671 74.3961 43.185 74.7521L43.0355 75.3996H45.0619H47.0883L46.5311 74.3134C45.9838 73.2468 45.9738 73.1952 45.9738 71.4569C45.9738 69.8093 46.0047 69.6233 46.4199 68.7726C46.9988 67.5866 48.444 66.1414 49.63 65.5625C50.4791 65.1481 50.6687 65.1164 52.2961 65.1164C53.8929 65.1164 54.128 65.1539 54.9514 65.5395C57.5428 66.753 59.0134 69.2102 58.804 71.9767C58.7218 73.0652 58.6157 73.3717 57.6592 75.289C57.6267 75.3539 61.5122 75.3882 66.2936 75.3652L74.9869 75.3234L75.3263 74.984C75.5419 74.7683 75.6639 74.463 75.661 74.1461C75.6546 73.4324 56.7363 21.5025 56.3525 21.145C56.0646 20.8767 55.6851 20.8605 49.6774 20.8605H43.3078L43.3084 25.0881L43.3092 29.3156L44.4523 29.9024C46.7025 31.0577 48.8697 33.5596 49.8791 36.1673C50.8299 38.6238 50.9838 39.7952 50.9929 44.6495L51.0011 49.0146L50.5403 49.5846C49.5703 50.7843 50.2038 50.7199 39.3823 50.7199C28.9035 50.7199 29.1706 50.7406 28.3498 49.8627C27.6712 49.1371 27.6162 48.7792 27.6194 45.1114C27.624 39.76 28.1203 37.1363 29.6424 34.4191C30.5667 32.7691 32.6561 30.7074 34.2046 29.9175L35.3845 29.3156L35.3853 25.0881L35.3859 20.8605H29.0163C23.0007 20.8605 22.6294 20.8764 22.3401 21.1459ZM14.591 23.3588C13.7249 23.6339 13.5304 23.7531 13.5553 23.9929C13.5774 24.2065 20.6258 52.0348 22.1433 57.9005L22.2865 58.4539L23.5042 58.1482C24.1739 57.98 24.7218 57.7932 24.7218 57.7331C24.7218 57.6196 16.098 23.7292 15.9496 23.2599C15.849 22.9417 15.9197 22.9365 14.591 23.3588ZM37.3664 31.4611C34.4618 32.2274 32.1844 34.4494 31.1134 37.5621C30.9496 38.0382 30.8156 38.4919 30.8156 38.5703C30.8156 38.6488 31.1642 38.3996 31.5903 38.0164C35.9273 34.117 42.7412 34.121 46.9581 38.0251L48.0195 39.0079L47.79 38.1988C47.6639 37.7539 47.2795 36.8111 46.9358 36.1037C45.1705 32.4705 41.0737 30.4829 37.3664 31.4611ZM37.0617 38.0118C34.5107 38.6849 32.3447 40.483 31.2048 42.8742C30.5616 44.2237 30.3415 45.1836 30.3086 46.7833L30.2824 48.0539L31.5158 48.0978L32.7491 48.1416L32.9178 47.1237C33.8078 41.753 40.443 39.6969 44.0719 43.6676C44.9994 44.6824 45.5597 45.8187 45.7759 47.1237L45.9445 48.1416L47.1779 48.0978L48.4113 48.0539L48.3648 46.759C48.2717 44.1635 47.4369 42.2086 45.6665 40.4402C43.8686 38.6444 41.7562 37.7629 39.2928 37.7807C38.5265 37.7862 37.5225 37.8903 37.0617 38.0118ZM14.9025 41.0776C13.43 44.8373 3.03586 73.7947 3.03266 74.1461C3.02976 74.463 3.15179 74.7683 3.36736 74.984L3.70663 75.3234L10.5199 75.3661L17.3332 75.4086V72.3075V69.2064L17.7722 68.6305C18.2804 67.964 18.9712 67.6301 19.842 67.6301C20.1799 67.6301 20.4562 67.6045 20.4562 67.5731C20.4562 67.5417 20.1418 66.2219 19.7574 64.6405C18.9843 61.4588 18.9348 60.5219 19.5018 59.801L19.8208 59.3956L19.372 57.6857C19.1252 56.7453 18.062 52.5823 17.0094 48.4347C15.9567 44.2872 15.076 40.8736 15.0524 40.8491C15.0288 40.8246 14.9613 40.9274 14.9025 41.0776ZM38.5642 44.2695C38.3432 44.3075 37.7973 44.5574 37.351 44.8251C36.3842 45.4048 35.6907 46.4263 35.5766 47.4381L35.4986 48.1301H39.327H43.1554V47.6682C43.1554 47.1048 42.8114 46.2504 42.3311 45.6207C41.6189 44.6868 39.8439 44.0501 38.5642 44.2695ZM23.9601 60.7415C22.7452 61.04 21.7335 61.2958 21.7118 61.3099C21.6762 61.3332 22.9482 66.7294 23.1388 67.3635C23.2112 67.6042 23.478 67.6301 25.885 67.6301C28.3536 67.6301 28.5449 67.6103 28.4693 67.3635C28.4012 67.1412 27.0388 61.6218 26.7771 60.508C26.676 60.0781 26.6543 60.0799 23.9601 60.7415ZM50.9381 67.8836C49.9989 68.2265 49.0461 69.2259 48.7187 70.2115C47.4221 74.1155 52.1478 77.0857 55.0456 74.1882C56.9534 72.2802 56.4218 69.1628 53.9883 67.9884C53.2398 67.6272 51.7779 67.5769 50.9381 67.8836ZM19.8468 72.3644V74.509L20.2921 74.9543L20.7374 75.3996H30.1259C40.0513 75.3996 40.2093 75.3891 40.471 74.7072C40.5229 74.5716 40.5656 73.6748 40.5656 72.7142C40.5656 71.0631 40.5452 70.9473 40.1916 70.5939L39.8177 70.2199H29.8322H19.8468V72.3644ZM0.394065 74.1047C0.394827 74.6074 0.423315 74.7946 0.457288 74.5209C0.491108 74.2471 0.490499 73.8358 0.455764 73.6068C0.420877 73.3778 0.393151 73.6019 0.394065 74.1047Z" fill="white"/>
</svg>

<svg xmlns="http://www.w3.org/2000/svg" width="79" height="78" fill="none" viewBox="0 0 79 78"><path fill="#fff" fill-rule="evenodd" d="M8.652.31c-1.363.335-1.996.703-2.518 1.466C5.377 2.88 5.298 2.48 9.767 20l4.114 16.126-6.728 18.456C.691 72.31.425 73.081.424 74.105c-.002 1.61.732 2.812 2.147 3.513.582.29 1.333.296 36.543.334 40.027.044 36.802.13 37.973-1.007.322-.312.706-.84.854-1.171s.334-.722.413-.867c.183-.334.192-1.84.01-1.727-.074.046-.167-.07-.206-.258-.19-.902-19.079-52.517-19.402-53.015-.508-.782-1.449-1.43-2.362-1.625-.47-.101-3.115-.164-6.924-.164-5.014 0-6.162-.037-6.162-.201 0-.115 2.16-1.238 5.008-2.604 2.755-1.32 5.22-2.53 5.478-2.686.64-.389 1.122-1.38 1.115-2.291-.006-.808-.262-1.41-.82-1.93-.337-.316-10.335-5.217-10.64-5.217-.073 0-.31-.376-.527-.834-1.215-2.569-4.347-3.132-6.339-1.14-1.197 1.197-1.197 1.202-1.197 9.611v7.277l-6.589.046c-6.585.046-6.59.046-7.317.407-.881.438-1.687 1.344-2.037 2.29-.669 1.811-.79 2.066-.874 1.843-.047-.126-1.253-4.822-2.68-10.436S13.22 1.866 13.132 1.645C12.766.742 11.52-.02 10.445 0c-.317.007-1.124.146-1.793.31m.732 2.551c-.518.138-.985.296-1.04.351-.1.103 4.307 17.651 4.476 17.82.17.168 2.45-.619 2.38-.822-.036-.103-1.029-3.992-2.206-8.642S10.8 3.014 10.731 2.893c-.174-.31-.29-.313-1.347-.032m29.43-.106c-.709.388-.686-.056-.686 13.26V28.63h2.438V16.074c0-6.906-.043-12.667-.095-12.802-.101-.264-.826-.696-1.155-.688-.109.002-.335.08-.502.171m4.494 7.644v4.349l.952-.435c2.85-1.303 7.957-3.803 7.991-3.913.03-.098-7.641-3.85-8.717-4.262-.197-.076-.226.475-.226 4.261M22.34 21.146c-.17.158-.805 1.658-1.424 3.362L19.8 27.584l3.777 14.882c2.565 10.108 3.853 14.93 4.014 15.033.13.084.515.404.853.71l.615.558 1.087 4.393 1.087 4.394 4.705.076c5.226.085 5.126.066 6.173 1.168.946.996 1.096 1.442 1.163 3.479.034 1.005-.006 2.12-.088 2.475l-.15.648h4.053l-.557-1.087c-.547-1.066-.557-1.118-.557-2.856 0-1.648.03-1.834.446-2.684.579-1.186 2.024-2.632 3.21-3.21.85-.415 1.039-.447 2.666-.447 1.597 0 1.832.038 2.655.424 2.592 1.213 4.062 3.67 3.853 6.437-.082 1.088-.188 1.395-1.145 3.312-.032.065 3.853.1 8.635.076l8.693-.042.34-.339c.215-.216.337-.521.334-.838-.006-.714-18.925-52.643-19.309-53.001-.287-.268-.667-.285-6.675-.285h-6.37l.001 4.228.001 4.228 1.143.586c2.25 1.156 4.418 3.658 5.427 6.265.95 2.457 1.105 3.628 1.114 8.483L51 49.015l-.46.57c-.97 1.2-.337 1.135-11.159 1.135-10.478 0-10.211.02-11.032-.857-.679-.726-.734-1.084-.73-4.752.004-5.351.5-7.975 2.022-10.692.925-1.65 3.014-3.712 4.563-4.501l1.18-.602V20.86h-6.369c-6.015 0-6.387.016-6.676.286m-7.749 2.213c-.866.275-1.06.394-1.036.634.022.213 7.07 28.042 8.588 33.908l.143.553 1.218-.306c.67-.168 1.218-.355 1.218-.415 0-.113-8.624-34.004-8.772-34.473-.101-.318-.03-.324-1.359.099m22.775 8.102c-2.904.766-5.182 2.988-6.253 6.101-.163.476-.297.93-.297 1.008 0 .079.348-.17.774-.554 4.337-3.899 11.151-3.895 15.368.01l1.062.982-.23-.81c-.126-.444-.51-1.387-.854-2.094-1.766-3.633-5.862-5.621-9.57-4.643m-.304 6.55a9.1 9.1 0 0 0-5.857 4.863c-.643 1.35-.863 2.31-.896 3.91l-.027 1.27 1.234.044 1.233.044.169-1.018c.89-5.371 7.525-7.427 11.154-3.456.927 1.014 1.488 2.15 1.704 3.456l.168 1.018 1.234-.044 1.233-.044-.046-1.295c-.093-2.596-.928-4.55-2.699-6.319-1.797-1.796-3.91-2.677-6.373-2.66-.767.006-1.77.11-2.231.232m-22.16 3.067c-1.472 3.76-11.866 32.717-11.87 33.068-.002.317.12.622.335.838l.34.34 6.813.042 6.813.043v-6.202l.44-.576q.762-1 2.069-1c.338 0 .614-.026.614-.058 0-.031-.314-1.351-.699-2.932-.773-3.182-.822-4.12-.255-4.84l.319-.405-.449-1.71c-.247-.94-1.31-5.104-2.363-9.251-1.052-4.148-1.933-7.561-1.957-7.586-.023-.024-.09.078-.15.229m23.662 3.191c-.22.038-.767.288-1.213.556-.967.58-1.66 1.601-1.774 2.613l-.078.692h7.656v-.462c0-.563-.344-1.418-.824-2.047-.712-.934-2.487-1.57-3.767-1.352M23.96 60.743a90 90 0 0 0-2.248.568c-.036.023 1.236 5.42 1.427 6.054.072.24.339.266 2.746.266 2.469 0 2.66-.02 2.584-.266-.068-.223-1.43-5.742-1.692-6.856-.101-.43-.123-.428-2.817.233m26.978 7.142c-.94.343-1.892 1.342-2.22 2.328-1.296 3.903 3.43 6.874 6.328 3.976 1.907-1.908 1.376-5.025-1.058-6.2-.748-.36-2.21-.411-3.05-.104m-31.091 4.48v2.145l.445.445.445.446h9.389c9.925 0 10.083-.01 10.345-.693.052-.135.095-1.032.095-1.993 0-1.65-.02-1.767-.374-2.12l-.374-.374H19.847zM.394 74.104c0 .503.03.69.063.417a4 4 0 0 0-.001-.914c-.035-.23-.063-.005-.062.498" clip-rule="evenodd"/></svg>
